usr/share/icons/biglinux-icons-material/symbolic/apps/image-viewer-symbolic.svg

<svg width="16" height="16" version="1.1" xmlns="http://www.w3.org/2000/svg">
 <g transform="translate(.006)" fill="#363636" font-family="sans-serif" font-weight="400">
  <path d="m3.994 2c-1.258 0.015-2.179-0.03-2.931 0.385a1.88 1.88 0 0 0-0.838 0.998c-0.165 0.437-0.225 0.96-0.225 1.617v7c0 0.658 0.06 1.179 0.225 1.617 0.164 0.439 0.461 0.79 0.838 0.998 0.752 0.416 1.673 0.37 2.931 0.385h1.502a6.04 6.04 0 0 1-2.196-3h-2.3v-7c0-0.592 0.063-1.006 0.16-1.266 0.098-0.26 0.202-0.371 0.385-0.472 0.365-0.202 1.195-0.247 2.455-0.262h8c1.259 0.015 2.087 0.06 2.453 0.262 0.184 0.1 0.29 0.212 0.387 0.472s0.16 0.674 0.16 1.266v7h-0.37c-0.148 0.389-0.326 0.765-0.536 1.12l1.213 1.212c0.2-0.194 0.363-0.434 0.468-0.715 0.165-0.438 0.225-0.96 0.225-1.617v-7c0-0.658-0.06-1.179-0.225-1.617a1.88 1.88 0 0 0-0.837-0.998c-0.753-0.416-1.674-0.37-2.932-0.385h-8.008zm2.701 10a2.932 2.932 0 0 0 2.305 1.105c0.946 0 1.766-0.432 2.305-1.105h-4.346z" overflow="visible" style="font-feature-settings:normal;font-variant-alternates:normal;font-variant-caps:normal;font-variant-ligatures:normal;font-variant-numeric:normal;font-variant-position:normal;isolation:auto;mix-blend-mode:normal;shape-padding:0;text-decoration-color:#000000;text-decoration-line:none;text-decoration-style:solid;text-indent:0;text-orientation:mixed;text-transform:none;white-space:normal"/>
  <path d="m9 5c-2.755 0-5 2.245-5 5s2.245 5 5 5 5-2.245 5-5-2.245-5-5-5zm0 1.04a3.954 3.954 0 0 1 3.96 3.96 3.954 3.954 0 0 1-3.96 3.96 3.952 3.952 0 0 1-3.959-3.96 3.952 3.952 0 0 1 3.959-3.96z" overflow="visible" style="font-feature-settings:normal;font-variant-alternates:normal;font-variant-caps:normal;font-variant-ligatures:normal;font-variant-numeric:normal;font-variant-position:normal;isolation:auto;mix-blend-mode:normal;shape-padding:0;text-decoration-color:#000000;text-decoration-line:none;text-decoration-style:solid;text-indent:0;text-orientation:mixed;text-transform:none;white-space:normal"/>
  <path d="m12.353 12.646-0.707 0.708 2.5 2.5 0.707-0.708z" fill-rule="evenodd" overflow="visible" style="font-feature-settings:normal;font-variant-alternates:normal;font-variant-caps:normal;font-variant-ligatures:normal;font-variant-numeric:normal;font-variant-position:normal;isolation:auto;mix-blend-mode:normal;shape-padding:0;text-decoration-color:#000000;text-decoration-line:none;text-decoration-style:solid;text-indent:0;text-orientation:mixed;text-transform:none;white-space:normal"/>
 </g>
</svg>

<svg xmlns="http://www.w3.org/2000/svg" width="16" height="16"><g fill="#dedede" font-family="sans-serif" font-weight="400"><path d="M3.994 2c-1.258.015-2.179-.03-2.931.385a1.88 1.88 0 0 0-.838.998C.06 3.82 0 4.343 0 5v7c0 .658.06 1.179.225 1.617.164.439.461.79.838.998.752.416 1.673.37 2.931.385h1.502A6.04 6.04 0 0 1 3.3 12H1V5c0-.592.063-1.006.16-1.266.098-.26.202-.371.385-.472C1.91 3.06 2.74 3.015 4 3h8c1.259.015 2.087.06 2.453.262.184.1.29.212.387.472S15 4.408 15 5v7h-.37a7.292 7.292 0 0 1-.536 1.12l1.213 1.212c.2-.194.363-.434.468-.715.165-.438.225-.96.225-1.617V5c0-.658-.06-1.179-.225-1.617a1.88 1.88 0 0 0-.837-.998c-.753-.416-1.674-.37-2.932-.385H3.998zm2.701 10A2.932 2.932 0 0 0 9 13.105c.946 0 1.766-.432 2.305-1.105H6.959z" overflow="visible" style="font-feature-settings:normal;font-variant-alternates:normal;font-variant-caps:normal;font-variant-ligatures:normal;font-variant-numeric:normal;font-variant-position:normal;isolation:auto;mix-blend-mode:normal;shape-padding:0;text-decoration-color:#000;text-decoration-line:none;text-decoration-style:solid;text-indent:0;text-orientation:mixed;text-transform:none;white-space:normal" transform="translate(.006)"/><path d="M9 5c-2.755 0-5 2.245-5 5s2.245 5 5 5 5-2.245 5-5-2.245-5-5-5zm0 1.04A3.954 3.954 0 0 1 12.96 10 3.954 3.954 0 0 1 9 13.96 3.952 3.952 0 0 1 5.041 10 3.952 3.952 0 0 1 9 6.04z" overflow="visible" style="font-feature-settings:normal;font-variant-alternates:normal;font-variant-caps:normal;font-variant-ligatures:normal;font-variant-numeric:normal;font-variant-position:normal;isolation:auto;mix-blend-mode:normal;shape-padding:0;text-decoration-color:#000;text-decoration-line:none;text-decoration-style:solid;text-indent:0;text-orientation:mixed;text-transform:none;white-space:normal" transform="translate(.006)"/><path fill-rule="evenodd" d="m12.353 12.646-.707.708 2.5 2.5.707-.708z" overflow="visible" style="font-feature-settings:normal;font-variant-alternates:normal;font-variant-caps:normal;font-variant-ligatures:normal;font-variant-numeric:normal;font-variant-position:normal;isolation:auto;mix-blend-mode:normal;shape-padding:0;text-decoration-color:#000;text-decoration-line:none;text-decoration-style:solid;text-indent:0;text-orientation:mixed;text-transform:none;white-space:normal" transform="translate(.006)"/></g></svg>
